svgs/thin/command.svg

<svg xmlns="http://www.w3.org/2000/svg" viewBox="0 0 448 512"><!-- Font Awesome Pro 6.0.0-alpha2 by @fontawesome - https://fontawesome.com License - https://fontawesome.com/license (Commercial License) --><path d="M368 320H304V192H368C412.184 192 448 156.184 448 112S412.184 32 368 32S288 67.816 288 112V176H160V112C160 67.816 124.184 32 80 32S0 67.816 0 112S35.816 192 80 192H144V320H80C35.816 320 0 355.816 0 400S35.816 480 80 480S160 444.184 160 400V336H288V400C288 444.184 323.816 480 368 480S448 444.184 448 400S412.184 320 368 320ZM304 112C304 76.711 332.711 48 368 48S432 76.711 432 112S403.289 176 368 176H304V112ZM80 176C44.711 176 16 147.289 16 112S44.711 48 80 48S144 76.711 144 112V176H80ZM144 400C144 435.289 115.289 464 80 464S16 435.289 16 400S44.711 336 80 336H144V400ZM160 320V192H288V320H160ZM368 464C332.711 464 304 435.289 304 400V336H368C403.289 336 432 364.711 432 400S403.289 464 368 464Z"/></svg>

<svg xmlns="http://www.w3.org/2000/svg" viewBox="0 0 448 512"><!--! Font Awesome Pro 6.3.0 by @fontawesome - https://fontawesome.com License - https://fontawesome.com/license (Commercial License) Copyright 2023 Fonticons, Inc. --><path d="M368 320h-64V192h64C412.2 192 448 156.2 448 112S412.2 32 368 32S288 67.82 288 112v64H160v-64C160 67.82 124.2 32 80 32S0 67.82 0 112S35.82 192 80 192h64v128h-64C35.82 320 0 355.8 0 400S35.82 480 80 480S160 444.2 160 400v-64h128v64c0 44.18 35.82 80 80 80s80-35.82 80-80S412.2 320 368 320zM304 112c0-35.29 28.71-64 64-64s64 28.71 64 64s-28.71 64-64 64h-64V112zM80 176c-35.29 0-64-28.71-64-64s28.71-64 64-64s64 28.71 64 64v64H80zM144 400c0 35.29-28.71 64-64 64s-64-28.71-64-64s28.71-64 64-64h64V400zM160 320V192h128v128H160zM368 464c-35.29 0-64-28.71-64-64v-64h64c35.29 0 64 28.71 64 64S403.3 464 368 464z"/></svg>
